X:30
T:Connie O'Connell's
Z: id:dc-jig-24
M:6/8
L:1/8
K:G Major
A|BGG ADD|BdB BAG|BGG ADD|GAG GED|!
BGG ADD|BAG ABc|dge fed|cAF G2:|!
A|GBd g3|fed cAF|GBd g3|faf g3|!
faf gfe|fed cAF|faf gfe|ded dc:|!
A|GBB B2d|cAA A2B|GBB BAG|BdB cAF|!
GBB B2d|cAA ABc|dge fed|cAF G2:|!

